X: 49
%
U:~=!turn!
T: The Bogannach
C:Neil Gow's Collection
O:Scotland
B:Keith Norman MacDonald : "The Skye collection of the best reels & strathspeys extant" : 1887
Z:Ralph Palmer
R:Reel
M:C|
L:1/8
K:B Aeolian
f | (Bcde) f2 da | c<AeA aAec | (Bcde) faea | c<Aa>c B/B/B Tf2{ef} ::
B/B/B (.b.^a) bBbf | =a>baf defd | efab faea | c<Aa>c B/B/B Tf2{ef} :|]


